icons-common/socket.svg

<svg height="1em" width="auto" viewBox="0 0 105 105" fill="currentColor" xmlns="http://www.w3.org/2000/svg">
    <path d="M61.74 80H42.26C31.6626 80 23 71.6785 23 61.4041V42.5959C23 32.3215 31.6187 24 42.26 24H61.7839C72.3813 24 81.044 32.3215 81.044 42.5959V61.4465C81.044 71.6785 72.4253 80.0424 61.7839 80.0424L61.74 80ZM42.26 31.4299C35.884 31.4299 30.7392 36.4397 30.7392 42.5534V61.4041C30.7392 67.5603 35.928 72.5277 42.26 72.5277H61.7839C68.16 72.5277 73.3048 67.5178 73.3048 61.4041V42.5959C73.3048 36.4397 68.116 31.4723 61.7839 31.4723H42.26V31.4299Z"
          />
    <path d="M61.7841 57.1582C64.7469 57.1582 67.1488 54.8392 67.1488 51.9785C67.1488 49.1179 64.7469 46.7988 61.7841 46.7988C58.8213 46.7988 56.4194 49.1179 56.4194 51.9785C56.4194 54.8392 58.8213 57.1582 61.7841 57.1582Z"
          />
    <path d="M42.2162 57.1582C45.1791 57.1582 47.5809 54.8392 47.5809 51.9785C47.5809 49.1179 45.1791 46.7988 42.2162 46.7988C39.2534 46.7988 36.8516 49.1179 36.8516 51.9785C36.8516 54.8392 39.2534 57.1582 42.2162 57.1582Z"
          />
</svg>

<svg xmlns="http://www.w3.org/2000/svg" width="auto" height="1em" fill="currentColor" viewBox="0 0 105 105">
    <path d="M61.74 80H42.26C31.663 80 23 71.679 23 61.404V42.596C23 32.322 31.619 24 42.26 24h19.524c10.597 0 19.26 8.322 19.26 18.596v18.85c0 10.233-8.619 18.596-19.26 18.596zM42.26 31.43c-6.376 0-11.52 5.01-11.52 11.123v18.851c0 6.156 5.188 11.124 11.52 11.124h19.524c6.376 0 11.52-5.01 11.52-11.124V42.596c0-6.156-5.188-11.124-11.52-11.124H42.26z"/>
    <path d="M61.784 57.158c2.963 0 5.365-2.319 5.365-5.18s-2.402-5.18-5.365-5.18-5.365 2.32-5.365 5.18c0 2.861 2.402 5.18 5.365 5.18m-19.568 0c2.963 0 5.365-2.319 5.365-5.18s-2.402-5.18-5.365-5.18-5.364 2.32-5.364 5.18c0 2.861 2.401 5.18 5.364 5.18"/>
</svg>
